epam-assets/icon-sources/18/media-playlist-check.svg

<svg width="18" height="18" viewBox="0 0 18 18" fill="none" xmlns="http://www.w3.org/2000/svg">
<g id="18/media-playlist-check">
<path id="icon" d="M3 12.75V11.25H8.25V12.75H3ZM3 9.75V8.25H12V9.75H3ZM3 6.75V5.25H12V6.75H3ZM13.0125 15L10.35 12.3375L11.4 11.2875L13.0125 12.8625L16.2 9.675L17.25 10.7625L13.0125 15Z" fill="#6C6F80"/>
</g>
</svg>

<svg xmlns="http://www.w3.org/2000/svg" width="18" height="18" fill="none" viewBox="0 0 18 18">
  <path fill="#6C6F80" d="M3 12.75v-1.5h5.25v1.5H3Zm0-3v-1.5h9v1.5H3Zm0-3v-1.5h9v1.5H3ZM13.012 15l-2.662-2.662 1.05-1.05 1.612 1.575L16.2 9.675l1.05 1.087L13.012 15Z"/>
</svg>
